!! 00000] TT[WS
!!!OTL: Yongbuneng zhu niangjia
!!!ARE: Asia, China, Shanxi Shuoxian
!! Ethnic Group: Han
!! WII, 166
!!!SCT: J0650
!!!YEM: Copyright 1995, estate of Helmut Schaffrath.
**kern
*ICvox
*Ivox
*M2/4
*k[f#]
*G:
{4b
8b
8a
=1
4g
4e
=2
4b
8b
8a
=3
4g
4e}
=4
{4b
8b
8a
=5
4.g
8a
=6
4.b
8g
=7
4a
4a}
=8
{4e
8e
8g
=9
4a
4a
=10
8g
8e
4d
=11
2d}
=12
{8b
8b
8b
8a
=13
4g
4e
=14
8b
8b
8b
8a
=15
4g
4e}
=16
{4b
8b
8a
=17
4.g
8a
=18
4.b
8g
=19
4a
4a}
=20
{4.dd
8g
=21
4a
4a
=22
4e
8e
8g
=23
4a
4a
=24
8g
8e
4d
=25
2d}
==
!!!AGN: Xiaodiao. Qingge, Aisu
!!!ONB: ESAC (Essen Associative Code) Database: CHINA
!!!AMT: simple duple
!!!AIN: vox
!!!EED: Helmut Schaffrath
!!!EEV: 1.0
*-
